X: 128
T:Six for the Six Proud Walkers
T:Fried's Triumph
M:4/4
L:1/8
K:D
|:"D"A4 FEFG|"D"A2D4"G"B2|"D"A2GF "Em"G2A2|"D"F4 "A7"E2FG|
"D"A2D2 "G"Bcd2|"A7"c2A2 "D"d3f|"A7"e2dc "Bm"d2c2|"E7"B4 "A"A4:|
|:"A"e4 cBcd|"A"e2A2-"D"A2d2|"G"B2cd "Em"efg2|"D"f4 "A7"e2dc|
"Bm"d2B2 "Em"e3d|"A"c2A2 "Bm"d2F2|"G"GAB2 "A"A2GF|"A7"E4 "D"D4:|

